X: 251
T: Ben Giderim Batum`a
C: Sabahat Karakulakoğlu
O: Turkey
F: http://compmusic.upf.edu/node/140
N: nikriz--turku--devrituran--ben_giderim--
N: makam= nikriz
N: form= turku
N: usul= devrituran = 7/16
M: 7/16
L: 1/16
K: C _7/8B ^3/4f ^c 
Q: 1/4=420
%%MIDI tuningsystem comma53
G4 G4 G4 G2  | .d4 d4 e2 ^f2 g2  | g4 =f2 e2 d2 c2 B2  | \
w:  Ben  gi de rim   |  Ba tu ma    |  Ba tu *  mun  *  ba  | 
d2 c2 B2 A2 G4 z2  | 
w:  ta *  ğı *  na    | 
G4 G4 G4 G2  | .d4 d4 e2 ^f2 g2  | g4 =f2 e2 d2 c2 B2  | \
w:  Ben  gi de rim   |  Ba tu ma    |  Ba tu *  mun  *  ba  | 
d2 c2 B2 A2 G4 z2  | 
w:  ta *  ğı *  na    | 
=c4 c4 c4 _2/4B2  | =c4 d4 e6  | z12  | \
w:  Bah çe niz den_  |  i çe ri    |  | 
d2c2B2d2c2B2  | z14  | d2 c2 B2 A2 G6  | \
w:  Al  *  be ni  *  o  |  |  ta *  ğı *  na    | 
=c4 c4 c4 _2/4B2  | 
w:  Bah çe niz den_  | 
=c4 d4 e6  | z12  | d2c2B2d2c2B2  | z14  | \
w:  i çe ri    |  |  Al  *  be ni  *  o  |  | 
d2 c2 B2 A2 G6  | G4 d4 d2 c2 B2  | 
w:  ta *  ğı *  na    |  Naz lı  yâ *  rim   | 
B4 B4 B2 A2 G2  | G4 d4 d2 c2 B2  | B4 B4 B2 A2 G2  | \
w:  gel dim  sa *  na    |  Fis ta nı *  nı   |  top la sa *  na    | 
G4 d4 d2 c2 B2  | B4 B4 B2 A2 G2  | 
w:  Ke men çe ler   |  ça lı nı *  yor    | 
z4 F2 G2 .A4 .A2  | A4 A4 B2 A2 G2  | \
w:  Bi ze  ho ron   |  oy na sa *  na   | 
.G8 z6  | g2 d2 B2 A2 d2 B2 G2  | G4 d4 d2 c2 B2  | 
w:  hey    |  SAZ  |  Naz lı  yâ *  rim   | 
B4 B4 B2 A2 G2  | G4 d4 d2 c2 B2  | B4 B4 B2 A2 G2  | \
w:  gel dim  sa *  na    |  Fis ta nı *  nı   |  top la sa *  na    | 
G4 d4 d2 c2 B2  | B4 B4 B2 A2 G2  | 
w:  Ke men çe ler   |  ça lı nı *  yor    | 
z4 F2 G2 .A4 .A2  | A4 A4 B2 A2 G2  | \
w:  Bi ze  ho ron   |  oy na sa *  na   | 
.G8 z6  | g2 d2 B2 A2 d2 B2 G2  | G4 G4 G4 G2  | 
w:  hey    |  SAZ  |  Ben  gi de rim   | 
.d4 d4 e2 ^f2 g2  | g4 =f2 e2 d2 c2 B2  | \
w:  Ba tu ma    |  Ba tu *  mun  *  ba  | 
d2 c2 B2 A2 G4 z2  | G4 G4 G4 G2  | 
w:  ta *  ğı *  na    |  Ben  gi de rim   | 
.d4 d4 e2 ^f2 g2  | g4 =f2 e2 d2 c2 B2  | \
w:  Ba tu ma    |  Ba tu *  mun  *  ba  | 
d2 c2 B2 A2 G4 z2  | =c4 c4 c4 _2/4B2  | 
w:  ta *  ğı *  na    |  Bah çe niz den_  | 
=c4 d4 e6  | z12  | d2c2B2d2c2B2  | z14  | \
w:  i çe ri    |  |  Al  *  be ni  *  o  |  | 
d2 c2 B2 A2 G6  | =c4 c4 c4 _2/4B2  | \
w:  ta *  ğı *  na    |  Bah çe niz den_  | 
=c4 d4 e6  | 
w:  i çe ri    | 
z12  | d2c2B2d2c2B2  | z14  | d2 c2 B2 A2 G6  | \
w:  |  Al  *  be ni  *  o  |  |  ta *  ğı *  na    | 
G4 d4 d2 c2 B2  | B4 B4 B2 A2 G2  | 
w:  Naz lı  yâ *  rim   |  gel dim  sa *  na    | 
G4 d4 d2 c2 B2  | B4 B4 B2 A2 G2  | G4 d4 d2 c2 B2  | \
w:  Fis ta nı *  nı   |  top la sa *  na    |  Ke men çe ler   | 
B4 B4 B2 A2 G2  | z4 F2 G2 .A4 .A2  | 
w:  ça lı nı *  yor    |  Bi ze  ho ron   | 
A4 A4 B2 A2 G2  | .G8 z6  | |


